X:2
T:Little Donald in the Pigpen
R:Reel
O:?
M:2/2
C:Trad.-John Morris Rankin
K:D
cd|:e2 cA eAcA|Aeec defa|e2 cA eA c2|BABc defa|
e2 cA eAcA|Aeec defa|e2 cA eA c2|BABc defd|
eaaf gfed|eaaf g2 fd|eaaf gfed|cABc defd|
eaaf gfed|eaaf g2 fg|afge faed|BGGd BGBd:||

